X: 1
T: Morning Star, The
C: R-43
M: C|
Z: Transcribed to abc by Mary Lou Knack
R: reel
K: G
dc| "G"BABG "Em"E2FG| "D"ABAF D2dc| "G"BABG "C"E2AF| "G"D2G2 G2 :|
\
AB| "C"cBcd efge| "D"dcBA "G"GFED| "C"cBcd "Am"efge| "D"f2d2 d2 AB|
    "C"cBcd efge| "D"dcBA "G"GFED| BABG "C"E2AF| "G"D2G2 G2 |]
%%text 9/1/98
